X:316
T: ES KAM EIN BETRUEBTER REITER DAHER
N: E0181A
O: Europa, Mitteleuropa, Deutschland, Sachsen
R: erzaehlendes Volks - Lied, Sage, Familien - Geschichte
M: 4/4
L: 1/16
K: G
B2A2 | G4G2G2G2A2B2c2 | d4d3dd4
e4 | d4c3cc4d2c2 | c3BB2B2B4
d4 | B4A2A2A4G2A2 | B4B4B4
d2d2 | B4A4A4G2A2 | B4B4B4

